src/client/assets/images/lso-logo-full.svg

<svg height="105" viewBox="0 0 471 105" width="471" xmlns="http://www.w3.org/2000/svg"><g fill="none"><g fill="#1d1d1b"><path d="m138.76 33v40h-6.57v-40z"/><path d="m171.18 55.42v17.52h-6.18v-16.89c0-4.34-2.51-6.63-6.39-6.63-4.05 0-7.25 2.4-7.25 8.22v15.3h-6.16v-28.54h6.16v3.65c1.88-3 5-4.39 8.85-4.39 6.4 0 10.97 4.34 10.97 11.76z"/><path d="m202.63 55.42v17.52h-6.16v-16.89c0-4.34-2.52-6.63-6.4-6.63-4 0-7.25 2.4-7.25 8.22v15.3h-6.16v-28.54h6.16v3.65c1.89-3 5-4.39 8.85-4.39 6.39 0 10.96 4.34 10.96 11.76z"/><path d="m206.51 58.67c-.028342-6.1015361 3.625322-11.6180521 9.254292-13.9726735 5.62897-2.3546213 12.122293-1.0826318 16.446809 3.2217969 4.324517 4.3044287 5.626724 10.7917597 3.298335 16.4316314s-7.827834 9.3191794-13.929436 9.3192452c-3.998495.0457152-7.847556-1.5176795-10.681678-4.3386373s-4.415421-6.6626982-4.388322-10.6613627zm24 0c-.055081-4.901939-4.063807-8.8363699-8.965918-8.7997517-4.902112.0366183-8.851614 4.0304963-8.833459 8.9327111.018154 4.9022149 3.997129 8.8667311 8.899377 8.8670406 2.383651.0280057 4.676002-.915515 6.349307-2.6133444 1.673305-1.6978293 2.583375-4.0036646 2.520693-6.3866556z"/><path d="m266.05 44.4-11.13 28.54h-7.14l-11.13-28.54h6.74l8 21.69 7.93-21.69z"/><path d="m296.41 44.4v28.54h-6.16v-4.11c-2.306128 3.194866-6.063317 5.017103-10 4.85-7.76 0-14.21-6.56-14.21-15s6.45-15 14.21-15c3.920809-.1574983 7.665336 1.6361301 10 4.79v-4.07zm-6.16 14.27c-.071551-4.953009-4.132119-8.917115-9.085416-8.8695856-4.953298.0475293-8.93705 4.0888244-8.913544 9.0422944.023507 4.95347 4.045434 8.9567744 8.99896 8.9572912 2.425001.0510183 4.763986-.8988779 6.466758-2.6262458 1.702773-1.7273679 2.61903-4.0797341 2.533242-6.5037542z"/><path d="m311.31 50.34v13.66c0 3.65 2.4 3.59 7.08 3.36v5.54c-9.47 1.14-13.24-1.48-13.24-8.9v-13.66h-5.25v-5.94h5.25v-6.16l6.16-1.83v8h7.08v5.94z"/><path d="m335.69 68c2.888801.1146154 5.646216-1.2116415 7.36-3.54l5.08 3c-2.63 3.88-6.91 6.22-12.5 6.22-9.42 0-15.53-6.45-15.53-15s6.11-15 15.07-15c8.51 0 14.33 6.85 14.33 15.07-.019784.8608083-.096619 1.7193579-.23 2.57h-22.72c.98 4.43 4.57 6.68 9.14 6.68zm7.59-11.76c-.486313-4.1000198-4.033721-7.1431396-8.16-7-4.242462-.2199609-7.964646 2.8026942-8.62 7z"/><path d="m392.43 66.66v6.28h-22.84v-39.94h6.57v33.66z"/><path d="m396.59 63.87 5.65-3.32c1.43 4.06 4.51 6.74 9.94 6.74 5.19 0 7.42-2.34 7.42-5.25 0-3.54-3.15-4.74-9.08-6.57-6.22-1.88-12.27-4.16-12.27-11.7 0-7.36 6.1-11.53 12.84-11.53 5.978889-.1520401 11.46395 3.3022471 13.91 8.76l-5.54 3.2c-1.43-3.2-3.94-5.59-8.39-5.59-3.82 0-6.28 1.94-6.28 5s2.23 4.4 8.05 6.22c6.62 2.12 13.3 4.17 13.3 12.1 0 7.31-5.82 11.76-14.16 11.76-7.85-.01-13.28-3.89-15.39-9.82z"/><path d="m429.53 53c0-11.44334 9.27666-20.72 20.72-20.72s20.72 9.27666 20.72 20.72-9.27666 20.72-20.72 20.72c-5.506723.0375899-10.798805-2.1333309-14.692737-6.027263s-6.064853-9.1860137-6.027263-14.692737zm34.87 0c.136811-5.146798-2.530795-9.9622808-6.966648-12.5759858s-9.940851-2.613705-14.376704 0-7.103459 7.4291878-6.966648 12.5759858c-.136811 5.146798 2.530795 9.9622808 6.966648 12.5759858s9.940851 2.613705 14.376704 0 7.103459-7.4291878 6.966648-12.5759858z"/></g><circle cx="52.92" cy="52.96" fill="#553080" r="52.01"/></g></svg>

<svg width="471px" height="105px" viewBox="0 0 471 105" version="1.1" xmlns="http://www.w3.org/2000/svg" xmlns:xlink="http://www.w3.org/1999/xlink">
    <!-- Generator: Sketch 49 (51002) - http://www.bohemiancoding.com/sketch -->
    <desc>LSO LOGO</desc>
    <defs></defs>
    <g id="Page-1" stroke="none" stroke-width="1" fill="none" fill-rule="evenodd">
        <g id="lso-logo-full" fill-rule="nonzero">
            <polygon id="Shape" fill="#1D1D1B" points="138.76 33 138.76 73 132.19 73 132.19 33"></polygon>
            <path d="M171.18,55.42 L171.18,72.94 L165,72.94 L165,56.05 C165,51.71 162.49,49.42 158.61,49.42 C154.56,49.42 151.36,51.82 151.36,57.64 L151.36,72.94 L145.2,72.94 L145.2,44.4 L151.36,44.4 L151.36,48.05 C153.24,45.05 156.36,43.66 160.21,43.66 C166.61,43.66 171.18,48 171.18,55.42 Z" id="Shape" fill="#1D1D1B"></path>
            <path d="M202.63,55.42 L202.63,72.94 L196.47,72.94 L196.47,56.05 C196.47,51.71 193.95,49.42 190.07,49.42 C186.07,49.42 182.82,51.82 182.82,57.64 L182.82,72.94 L176.66,72.94 L176.66,44.4 L182.82,44.4 L182.82,48.05 C184.71,45.05 187.82,43.66 191.67,43.66 C198.06,43.66 202.63,48 202.63,55.42 Z" id="Shape" fill="#1D1D1B"></path>
            <path d="M206.51,58.67 C206.481658,52.5684639 210.135322,47.0519479 215.764292,44.6973265 C221.393262,42.3427052 227.886585,43.6146947 232.211101,47.9191234 C236.535618,52.2235521 237.837825,58.7108831 235.509436,64.3507548 C233.181047,69.9906265 227.681602,73.6699342 221.58,73.67 C217.581505,73.7157152 213.732444,72.1523205 210.898322,69.3313627 C208.0642,66.5104049 206.482901,62.6686645 206.51,58.67 Z M230.51,58.67 C230.454919,53.768061 226.446193,49.8336301 221.544082,49.8702483 C216.64197,49.9068666 212.692468,53.9007446 212.710623,58.8029594 C212.728777,63.7051743 216.707752,67.6696905 221.61,67.67 C223.993651,67.6980057 226.286002,66.754485 227.959307,65.0566556 C229.632612,63.3588263 230.542682,61.052991 230.48,58.67 L230.51,58.67 Z" id="Shape" fill="#1D1D1B"></path>
            <polygon id="Shape" fill="#1D1D1B" points="266.05 44.4 254.92 72.94 247.78 72.94 236.65 44.4 243.39 44.4 251.39 66.09 259.32 44.4"></polygon>
            <path d="M296.41,44.4 L296.41,72.94 L290.25,72.94 L290.25,68.83 C287.943872,72.024866 284.186683,73.847103 280.25,73.68 C272.49,73.68 266.04,67.12 266.04,58.68 C266.04,50.24 272.49,43.68 280.25,43.68 C284.170809,43.5225017 287.915336,45.3161301 290.25,48.47 L290.25,44.4 L296.41,44.4 Z M290.25,58.67 C290.178449,53.716991 286.117881,49.752885 281.164584,49.8004144 C276.211286,49.8479437 272.227534,53.8892388 272.25104,58.8427088 C272.274547,63.7961788 276.296474,67.7994832 281.25,67.8 C283.675001,67.8510183 286.013986,66.9011221 287.716758,65.1737542 C289.419531,63.4463863 290.335788,61.0940201 290.25,58.67 Z" id="Shape" fill="#1D1D1B"></path>
            <path d="M311.31,50.34 L311.31,64 C311.31,67.65 313.71,67.59 318.39,67.36 L318.39,72.9 C308.92,74.04 305.15,71.42 305.15,64 L305.15,50.34 L299.9,50.34 L299.9,44.4 L305.15,44.4 L305.15,38.24 L311.31,36.41 L311.31,44.41 L318.39,44.41 L318.39,50.35 L311.31,50.34 Z" id="Shape" fill="#1D1D1B"></path>
            <path d="M335.69,68 C338.578801,68.1146154 341.336216,66.7883585 343.05,64.46 L348.13,67.46 C345.5,71.34 341.22,73.68 335.63,73.68 C326.21,73.68 320.1,67.23 320.1,58.68 C320.1,50.13 326.21,43.68 335.17,43.68 C343.68,43.68 349.5,50.53 349.5,58.75 C349.480216,59.6108083 349.403381,60.4693579 349.27,61.32 L326.55,61.32 C327.53,65.75 331.12,68 335.69,68 Z M343.28,56.24 C342.793687,52.1399802 339.246279,49.0968604 335.12,49.24 C330.877538,49.0200391 327.155354,52.0426942 326.5,56.24 L343.28,56.24 Z" id="Shape" fill="#1D1D1B"></path>
            <polygon id="Shape" fill="#1D1D1B" points="392.43 66.66 392.43 72.94 369.59 72.94 369.59 33 376.16 33 376.16 66.66"></polygon>
            <path d="M396.59,63.87 L402.24,60.55 C403.67,64.61 406.75,67.29 412.18,67.29 C417.37,67.29 419.6,64.95 419.6,62.04 C419.6,58.5 416.45,57.3 410.52,55.47 C404.3,53.59 398.25,51.31 398.25,43.77 C398.25,36.41 404.35,32.24 411.09,32.24 C417.068889,32.0879599 422.55395,35.5422471 425,41 L419.46,44.2 C418.03,41 415.52,38.61 411.07,38.61 C407.25,38.61 404.79,40.55 404.79,43.61 C404.79,46.67 407.02,48.01 412.84,49.83 C419.46,51.95 426.14,54 426.14,61.93 C426.14,69.24 420.32,73.69 411.98,73.69 C404.13,73.68 398.7,69.8 396.59,63.87 Z" id="Shape" fill="#1D1D1B"></path>
            <path d="M429.53,53 C429.53,41.55666 438.80666,32.28 450.25,32.28 C461.69334,32.28 470.97,41.55666 470.97,53 C470.97,64.44334 461.69334,73.72 450.25,73.72 C444.743277,73.7575899 439.451195,71.5866691 435.557263,67.692737 C431.663331,63.7988049 429.49241,58.5067233 429.53,53 Z M464.4,53 C464.536811,47.853202 461.869205,43.0377192 457.433352,40.4240142 C452.997499,37.8103092 447.492501,37.8103092 443.056648,40.4240142 C438.620795,43.0377192 435.953189,47.853202 436.09,53 C435.953189,58.146798 438.620795,62.9622808 443.056648,65.5759858 C447.492501,68.1896908 452.997499,68.1896908 457.433352,65.5759858 C461.869205,62.9622808 464.536811,58.146798 464.4,53 Z" id="Shape" fill="#1D1D1B"></path>
            <circle id="Oval" fill="#553080" cx="52.92" cy="52.96" r="52.01"></circle>
        </g>
    </g>
</svg>
